assets/img/braze_icons/passcode-lock.svg

<svg fill="none" height="24" viewBox="0 0 24 24" width="24" xmlns="http://www.w3.org/2000/svg"><g fill="#801ed7"><path d="m5.16146 4h13.67704c.5272-.00002.982-.00003 1.3565.03057.3954.0323.7886.10362 1.167.29641.5645.28762 1.0234.74656 1.311 1.31105.1928.37838.2641.7716.2964 1.16694.0306.37457.0306.82933.0306 1.35647v2.83856c0 .5523-.4477 1-1 1s-1-.4477-1-1v-2.8c0-.57655-.0008-.94882-.0239-1.23216-.0222-.27166-.0599-.37238-.0851-.42183-.0959-.18816-.2488-.34114-.437-.43701-.0495-.0252-.1502-.06287-.4218-.08507-.2834-.02315-.6556-.02393-1.2322-.02393h-13.6c-.57655 0-.94882.00078-1.23216.02393-.27166.0222-.37238.05987-.42183.08507-.18816.09587-.34114.24885-.43701.43701-.0252.04945-.06287.15017-.08507.42183-.02315.28334-.02393.65561-.02393 1.23216v3.6c0 .5766.00078.9488.02393 1.2322.0222.2716.05987.3723.08507.4218.09587.1882.24885.3411.43701.437.04945.0252.15017.0629.42183.0851.28334.0231.65561.0239 1.23216.0239h5.8c.5523 0 1 .4477 1 1s-.4477 1-1 1h-5.83852c-.52715 0-.98194 0-1.35651-.0306-.39534-.0323-.78856-.1036-1.16694-.2964-.56449-.2876-1.02343-.7465-1.31105-1.311-.19279-.3784-.26411-.7716-.29641-1.167-.030601-.3745-.030586-.8293-.03057-1.3564v-3.67714c-.000016-.52713-.000031-.98192.03057-1.35649.0323-.39534.10362-.78856.29641-1.16694.28762-.56449.74656-1.02343 1.31105-1.31105.37838-.19279.7716-.26411 1.16694-.29641.37457-.0306.82936-.03059 1.35649-.03057z"/><path d="m5.75 10c0-.69035.55965-1.25 1.25-1.25.69036 0 1.25.55965 1.25 1.25 0 .6904-.55964 1.25-1.25 1.25-.69035 0-1.25-.5596-1.25-1.25z"/><path d="m12 8.75c-.6904 0-1.25.55965-1.25 1.25 0 .6904.5596 1.25 1.25 1.25s1.25-.5596 1.25-1.25c0-.69035-.5596-1.25-1.25-1.25z"/><path d="m17 8.75c-.6904 0-1.25.55965-1.25 1.25 0 .6904.5596 1.25 1.25 1.25s1.25-.5596 1.25-1.25c0-.69035-.5596-1.25-1.25-1.25z"/><path clip-rule="evenodd" d="m14.75 15.25c0-1.5188 1.2312-2.75 2.75-2.75s2.75 1.2312 2.75 2.75v.778c.2025.024.4296.0736.658.19.3763.1917.6823.4977.874.874.1383.2714.1824.5412.2011.7698.017.2081.0169.4539.0169.7063v.8638c0 .2524.0001.4982-.0169.7063-.0187.2286-.0628.4984-.2011.7698-.1917.3763-.4977.6823-.874.874-.2714.1383-.5412.1824-.7698.2011-.2081.017-.4539.0169-.7063.0169h-3.8638c-.2524 0-.4982.0001-.7063-.0169-.2286-.0187-.4984-.0628-.7698-.2011-.3763-.1917-.6823-.4977-.874-.874-.1383-.2714-.1824-.5412-.201-.7698-.0171-.2081-.017-.4539-.017-.7063v-.8638c0-.2524-.0001-.4982.017-.7063.0186-.2286.0627-.4984.201-.7698.1917-.3763.4977-.6823.874-.874.2284-.1164.4555-.166.658-.19zm3.5 0v.75h-1.5v-.75c0-.4142.3358-.75.75-.75s.75.3358.75.75z" fill-rule="evenodd"/></g></svg>

<svg width="24" height="24" viewBox="0 0 24 24" fill="none" xmlns="http://www.w3.org/2000/svg">
<path d="M5.16146 4H18.8385C19.3657 3.99998 19.8205 3.99997 20.195 4.03057C20.5904 4.06287 20.9836 4.13419 21.362 4.32698C21.9265 4.6146 22.3854 5.07354 22.673 5.63803C22.8658 6.01641 22.9371 6.40963 22.9694 6.80497C23 7.17954 23 7.6343 23 8.16144V11C23 11.5523 22.5523 12 22 12C21.4477 12 21 11.5523 21 11V8.2C21 7.62345 20.9992 7.25118 20.9761 6.96784C20.9539 6.69618 20.9162 6.59546 20.891 6.54601C20.7951 6.35785 20.6422 6.20487 20.454 6.109C20.4045 6.0838 20.3038 6.04613 20.0322 6.02393C19.7488 6.00078 19.3766 6 18.8 6H5.2C4.62345 6 4.25118 6.00078 3.96784 6.02393C3.69618 6.04613 3.59546 6.0838 3.54601 6.109C3.35785 6.20487 3.20487 6.35785 3.109 6.54601C3.0838 6.59546 3.04613 6.69618 3.02393 6.96784C3.00078 7.25118 3 7.62345 3 8.2V11.8C3 12.3766 3.00078 12.7488 3.02393 13.0322C3.04613 13.3038 3.0838 13.4045 3.109 13.454C3.20487 13.6422 3.35785 13.7951 3.54601 13.891C3.59546 13.9162 3.69618 13.9539 3.96784 13.9761C4.25118 13.9992 4.62345 14 5.2 14H11C11.5523 14 12 14.4477 12 15C12 15.5523 11.5523 16 11 16H5.16148C4.63433 16 4.17954 16 3.80497 15.9694C3.40963 15.9371 3.01641 15.8658 2.63803 15.673C2.07354 15.3854 1.6146 14.9265 1.32698 14.362C1.13419 13.9836 1.06287 13.5904 1.03057 13.195C0.999969 12.8205 0.999984 12.3657 1 11.8386V8.16146C0.999984 7.63433 0.999969 7.17954 1.03057 6.80497C1.06287 6.40963 1.13419 6.01641 1.32698 5.63803C1.6146 5.07354 2.07354 4.6146 2.63803 4.32698C3.01641 4.13419 3.40963 4.06287 3.80497 4.03057C4.17954 3.99997 4.63433 3.99998 5.16146 4Z" fill="#801ED7"/>
<path d="M5.75 10C5.75 9.30965 6.30965 8.75 7 8.75C7.69036 8.75 8.25 9.30965 8.25 10C8.25 10.6904 7.69036 11.25 7 11.25C6.30965 11.25 5.75 10.6904 5.75 10Z" fill="#801ED7"/>
<path d="M12 8.75C11.3096 8.75 10.75 9.30965 10.75 10C10.75 10.6904 11.3096 11.25 12 11.25C12.6904 11.25 13.25 10.6904 13.25 10C13.25 9.30965 12.6904 8.75 12 8.75Z" fill="#801ED7"/>
<path d="M17 8.75C16.3096 8.75 15.75 9.30965 15.75 10C15.75 10.6904 16.3096 11.25 17 11.25C17.6904 11.25 18.25 10.6904 18.25 10C18.25 9.30965 17.6904 8.75 17 8.75Z" fill="#801ED7"/>
<path fill-rule="evenodd" clip-rule="evenodd" d="M14.75 15.25C14.75 13.7312 15.9812 12.5 17.5 12.5C19.0188 12.5 20.25 13.7312 20.25 15.25V16.028C20.4525 16.052 20.6796 16.1016 20.908 16.218C21.2843 16.4097 21.5903 16.7157 21.782 17.092C21.9203 17.3634 21.9644 17.6332 21.9831 17.8618C22.0001 18.0699 22 18.3157 22 18.5681V19.4319C22 19.6843 22.0001 19.9301 21.9831 20.1382C21.9644 20.3668 21.9203 20.6366 21.782 20.908C21.5903 21.2843 21.2843 21.5903 20.908 21.782C20.6366 21.9203 20.3668 21.9644 20.1382 21.9831C19.9301 22.0001 19.6843 22 19.4319 22H15.5681C15.3157 22 15.0699 22.0001 14.8618 21.9831C14.6332 21.9644 14.3634 21.9203 14.092 21.782C13.7157 21.5903 13.4097 21.2843 13.218 20.908C13.0797 20.6366 13.0356 20.3668 13.017 20.1382C12.9999 19.9301 13 19.6843 13 19.4319V18.5681C13 18.3157 12.9999 18.0699 13.017 17.8618C13.0356 17.6332 13.0797 17.3634 13.218 17.092C13.4097 16.7157 13.7157 16.4097 14.092 16.218C14.3204 16.1016 14.5475 16.052 14.75 16.028V15.25ZM18.25 15.25V16H16.75V15.25C16.75 14.8358 17.0858 14.5 17.5 14.5C17.9142 14.5 18.25 14.8358 18.25 15.25Z" fill="#801ED7"/>
</svg>
